X:5529
T:Revenez à moi ma blonde - Pil\'e Menu
O:england
C:Perroches: Midi Breton
M:2/4
L:1/8
K:C
ee fe |dc Be/e/|ee fe |dc B2:|\
Ae ee |c2A2|:AB/c/ d2 |\
ed/c/ BB|Be ee |c2A2:|


